X:17
T:Scotland the Brave (#012)
C:music: (Unknown ca. 1890)
C:words: Cliff Hanley (1922-1999)
N:Lyrics \251 1951 Kerrs Music, Berkeley Street, Glasgow, Scotland, UK
M:4/4
L:1/4
K:D
|"D""^Verses"D2 D3/2 E/2|F D F A|d2"G"d d|"D"d A"D7"F D|"G"G2 B G
w:0 0 1 2 0 2 4 0 0 0 0 4 2 0 3 5 3
w:v1~Hark where the night is fall-ing, Hark hear the pipes a call-ing, Loud-ly and
w:v2~High in the mis-ty moun-tains, Out by the pur-ple high-lands, Brave are the
w:v3~Far off in sun-lit pla-ces, Sad are the Scot-tish fa-ces, Yearn-ing to
|"D"F A"Bm"F D|"E7"E2 A3/2 A/2|"A7"A G F (3EFE|"D"D2 D3/2 E/2|F D F A
w:2 4 2 0 1 4 4 4 3 2 1 2 1 0 0 1 2 0 2 4
w:proud-ly call-ing down through the glen.| There where the hills are sleep-ing,
w:hearts that beat be-neath Scot-tish skies.| Wild are the winds to meet you,
w:feel the kiss of sweet Scot-tish rain.| Where tro-pic skies are beam-ing,
|d2"G" d d|"D"d A "D7"F A|"G"G2 B G|"D"F A "Bm"F D|"E7"E2 "A7"D C
w:7 7 7 7 4 2 4 3 5 3 2 4 2 0 1 0 C
w:Now feel the blood a leap-ing, High as the spir-its of the old high-land
w:Staunch are the friends that greet you, Kind as the love that shines from fair maid-ens
w:Love sets the heart a'-dream-ing, Long-ing and dream-ing for the home-land a-
|"D"D2||
w:0
w:men.
w:eyes.
w:gain.
|"^Chorus"F A|"A7"d2 d3/2 d/2|d c A D|"D"d2 d3/2 d/2|d A D A|"Bm"G2 B G
w:2 4 7 7 7 7 4 2 0 7 7 7 7 4 2 4 3 5 3
w:|C~Tower-ing in gal-lant fame,_ Scot-land my moun-tain hame,_ High may your
|"F#m"F A F D|"E7"E2 E3/2 A/2|"A7"A G F (3EFE|"D"D2 D3/2 E/2|F D F A
w:2 4 2 0 1 1 4 4 3 2 1 2 1 0 0 1 2 0 2 4
w:proud_ stan-dards glor-ious-ly wave.| Land of my high en-dea-vour,
|d2 "G"d3/2 d/2|"D"dA"D7"FA|"G"G2BG|"D"FA"Bm"FD|"Em"E2"A7"DC|"D"D4||
w:7 7 7 7 4 2 4 3 5 3 2 4 2 0 1 0 C 0
w:Land of the shin-ing ri-ver, Land of my heart for-ev-er, Scot-land the brave!

%Cotton Eyed Joe - 013
%%scale 1.3
